package/converter/svg/light/transporter-5.svg

<svg xmlns="http://www.w3.org/2000/svg" viewBox="0 0 512 512"><!-- Font Awesome Pro 6.0.0-alpha2 by @fontawesome - https://fontawesome.com License - https://fontawesome.com/license (Commercial License) --><path d="M176 160H336C344.844 160 352 152.844 352 144S344.844 128 336 128H176C167.156 128 160 135.156 160 144S167.156 160 176 160ZM224 32H288C296.844 32 304 24.844 304 16S296.844 0 288 0H224C215.156 0 208 7.156 208 16S215.156 32 224 32ZM80 160H64V144C64 135.156 56.844 128 48 128S32 135.156 32 144V160H16C7.156 160 0 167.156 0 176S7.156 192 16 192H32V208C32 216.844 39.156 224 48 224S64 216.844 64 208V192H80C88.844 192 96 184.844 96 176S88.844 160 80 160ZM336 416C344.844 416 352 408.844 352 400S344.844 384 336 384H176C167.156 384 160 391.156 160 400S167.156 416 176 416H336ZM400 256H112C103.156 256 96 263.156 96 272S103.156 288 112 288H400C408.844 288 416 280.844 416 272S408.844 256 400 256ZM496 32H480V16C480 7.156 472.844 0 464 0S448 7.156 448 16V32H432C423.156 32 416 39.156 416 48S423.156 64 432 64H448V80C448 88.844 455.156 96 464 96S480 88.844 480 80V64H496C504.844 64 512 56.844 512 48S504.844 32 496 32ZM368 448H144C117.531 448 96 469.531 96 496C96 504.844 103.156 512 112 512S128 504.844 128 496C128 487.172 135.172 480 144 480H368C376.828 480 384 487.172 384 496C384 504.844 391.156 512 400 512S416 504.844 416 496C416 469.531 394.469 448 368 448Z"/></svg>

<svg xmlns="http://www.w3.org/2000/svg" viewBox="0 0 512 512"><!--! Font Awesome Pro 6.6.0 by @fontawesome - https://fontawesome.com License - https://fontawesome.com/license (Commercial License) Copyright 2024 Fonticons, Inc. --><path d="M464 0c-8.8 0-16 7.2-16 16l0 16-16 0c-8.8 0-16 7.2-16 16s7.2 16 16 16l16 0 0 16c0 8.8 7.2 16 16 16s16-7.2 16-16l0-16 16 0c8.8 0 16-7.2 16-16s-7.2-16-16-16l-16 0 0-16c0-8.8-7.2-16-16-16zM48 128c-8.8 0-16 7.2-16 16l0 16-16 0c-8.8 0-16 7.2-16 16s7.2 16 16 16l16 0 0 16c0 8.8 7.2 16 16 16s16-7.2 16-16l0-16 16 0c8.8 0 16-7.2 16-16s-7.2-16-16-16l-16 0 0-16c0-8.8-7.2-16-16-16zM208 16c0 8.8 7.2 16 16 16l64 0c8.8 0 16-7.2 16-16s-7.2-16-16-16L224 0c-8.8 0-16 7.2-16 16zM160 144c0 8.8 7.2 16 16 16l160 0c8.8 0 16-7.2 16-16s-7.2-16-16-16l-160 0c-8.8 0-16 7.2-16 16zM96 272c0 8.8 7.2 16 16 16l288 0c8.8 0 16-7.2 16-16s-7.2-16-16-16l-288 0c-8.8 0-16 7.2-16 16zm64 128c0 8.8 7.2 16 16 16l160 0c8.8 0 16-7.2 16-16s-7.2-16-16-16l-160 0c-8.8 0-16 7.2-16 16zm-32 96c0-8.8 7.2-16 16-16l224 0c8.8 0 16 7.2 16 16s7.2 16 16 16s16-7.2 16-16c0-26.5-21.5-48-48-48l-224 0c-26.5 0-48 21.5-48 48c0 8.8 7.2 16 16 16s16-7.2 16-16z"/></svg>
